!!!OTL: Des Pfalzgrafen Töchterlein (51a),
!!!id: T0185
**kern
*clefG2
*k[f#c#]
*D:
*M2/4
8r
{8a
8a
8a
=2
8b
8b
8a
8g
=3
8f#}
=4
{8a
8a
8a
=5
8b
8b
8a
8g
=6
8f#}
=7
{8a
8a
8a
=8
4dd
8cc#
8b
=9
4cc#
4b
=10
4a}
4r
==
*-
!!!minrhy: 8
!!!meters: 2/4 ]  ZZ[3
!!!cut1: Des Pfalzgrafen Töchterlein (51a),
!!!cut2: Melodie I, S. 159
!!!reg: Luxemburg
!!!trd: Singendes Volk, Esch-Alzette 1937 posth.
!!!rhy1: 0XXX  XXXX  X
!!!rhy2: XXX  XXXX  X
!!!key: T0185  08  D 2/4 ]  ZZ[3
!!!mod: SECHSTONSKALA DUR ?]  AMBITUS[6b
!!!kad: 335
!!!akz: 63_63_+175_
!!!fot: 'a__av_b__
!!!for: 'a__aw_b__
!!!fok: '\__\__^__
!! PHRAS[AUFTAKTIG]
!!!fkt: Liebeslieder
!!!bem1: Heffingen, fff Magdalene Weiker-Gregorius (*1828),
!!!bem2: 1908; Autorhinweis: erz&auml;hlend
!! THILL, Mathias:
!! PR[32] 2K[4] 2G[16] 3K[8] 3G[0] 4A[4] 4Ü[0] 5A[0] 6K[0] 6G[0]
!! 7K[0] 7G[0] 8A[0] MEHR[0] SI[32] ABS[25] SR[20] SP[12]
!! ST[8] 2k[12] 2g[24] 3k[0] 3g[0] 4d[0] 4ü[0] 5d[0] 6k[0] 6g[0]
!! 7k[0] 7g[0] 8d[0] mehr[0] si[36] dm[-4] sr[36] sp[0]
!! 1F[86] 2F[14] 3F[0] 4F[0] LF[0] 2P[0] 3P[0] 4P[0] TRI[0] DF[2] AB[28]
!! TF[0] U3K[0] U3[0] U4[0] U4Ü[0] U5[0] U6K[0] U6[0] U7K[0] U7[0]
!! N1[0] N2K[0] N2[0] N3K[0] N3[8] N4[8] N4Ü[0] N5[46] N6K[0] N6[23]
!!!n7k: 0] N7[8] O1[8] O2K[0] O2[0] O3K[0] O3[0] HÖ[0
!!!RNB: symbol: &auml;      = a umlaut  (UTF-8: Å„)
